; generated by PrusaSlicer 2.3.3+win64 on 2021-10-12 at 18:07:03 UTC

; 

; external perimeters extrusion width = 0.45mm
; perimeters extrusion width = 0.45mm
; infill extrusion width = 0.45mm
; solid infill extrusion width = 0.45mm
; top infill extrusion width = 0.40mm
; first layer extrusion width = 0.42mm

M201 X9000 Y9000 Z500 E10000 ; sets maximum accelerations, mm/sec^2
M203 X500 Y500 Z12 E120 ; sets maximum feedrates, mm/sec
M204 P1500 R1500 T1500 ; sets acceleration (P, T) and retract acceleration (R), mm/sec^2
M205 X10.00 Y10.00 Z0.20 E2.50 ; sets the jerk limits, mm/sec
M205 S0 T0 ; sets the minimum extruding and travel feed rate, mm/sec
M107
M190 S105 ; set bed temperature and wait for it to be reached
M104 S200 ; set temperature
;TYPE:Custom
G28 ; home all axes
G1 Z5 F5000 ; lift nozzle
M109 S200 ; set temperature and wait for it to be reached
G21 ; set units to millimeters
G90 ; use absolute coordinates
M82 ; use absolute distances for extrusion
G92 E0
; Filament gcode
;LAYER_CHANGE
;Z:0.35
;HEIGHT:0.35
G1 Z0.350 F7200.000
G1 E-2.00000 F2400.000
G92 E0
G1 X45.649 Y45.970 F7200.000
G1 E2.00000 F2400.000
;TYPE:Skirt
;WIDTH:0.42
G1 F1800.000
G1 X46.797 Y44.981 E2.07604
G1 X47.924 Y44.336 E2.14120
G1 X49.313 Y43.852 E2.21505
G1 X50.860 Y43.657 E2.29330
G1 X149.006 Y43.655 E7.21884
G1 X150.437 Y43.800 E7.29102
G1 X151.641 Y44.153 E7.35400
G1 X152.904 Y44.780 E7.42475
G1 X154.103 Y45.717 E7.50111
G1 X155.037 Y46.823 E7.57374
G1 X155.654 Y47.901 E7.63610
G1 X156.129 Y49.235 E7.70716
G1 X156.337 Y50.692 E7.78105
G1 X156.344 Y149.124 E12.72096
G1 X156.190 Y150.492 E12.79003
G1 X155.844 Y151.647 E12.85052
G1 X155.244 Y152.867 E12.91879
G1 X154.351 Y154.030 E12.99235
G1 X153.182 Y155.033 E13.06964
G1 X152.025 Y155.687 E13.13635
G1 X150.614 Y156.164 E13.21113
G1 X149.021 Y156.345 E13.29154
G1 X50.876 Y156.344 E18.21709
G1 X49.508 Y156.190 E18.28616
G1 X48.353 Y155.844 E18.34665
G1 X47.133 Y155.244 E18.41491
G1 X45.970 Y154.351 E18.48848
G1 X44.967 Y153.182 E18.56577
G1 X44.313 Y152.025 E18.63248
G1 X43.836 Y150.614 E18.70726
G1 X43.655 Y149.021 E18.78767
G1 X43.656 Y50.876 E23.71321
G1 X43.810 Y49.508 E23.78229
G1 X44.156 Y48.353 E23.84278
G1 X44.756 Y47.133 E23.91104
G1 X45.612 Y46.017 E23.98160
G1 E21.98160 F2400.000
G92 E0
G1 X52.134 Y52.134 F7200.000
G1 E2.00000 F2400.000
;TYPE:Perimeter
G1 F1800.000
G1 X147.866 Y52.134 E6.80435
G1 X147.866 Y147.866 E11.60871
G1 X52.134 Y147.866 E16.41306
G1 X52.134 Y52.194 E21.21440
G1 X51.790 Y51.790 F7200.000
G1 F1800.000
G1 X148.210 Y51.790 E26.05337
G1 X148.210 Y148.210 E30.89234
G1 X51.790 Y148.210 E35.73131
G1 X51.790 Y51.850 E40.56727
G1 X51.445 Y51.445 F7200.000
G1 F1800.000
G1 X148.555 Y51.445 E45.44086
G1 X148.555 Y148.555 E50.31445
G1 X51.445 Y148.555 E55.18803
G1 X51.445 Y51.505 E60.05861
G1 X51.100 Y51.100 F7200.000
G1 F1800.000
G1 X148.900 Y51.100 E64.96682
G1 X148.900 Y148.900 E69.87502
G1 X51.100 Y148.900 E74.78322
G1 X51.100 Y51.160 E79.68842
G1 X50.793 Y50.881 F7200.000
G1 F1800.000
G1 X50.881 Y50.793 E79.69462
G1 X51.049 Y50.755 E79.70330
G1 X148.951 Y50.755 E84.61656
G1 X149.062 Y50.770 E84.62219
G1 X149.169 Y50.831 E84.62839
G1 X149.230 Y50.938 E84.63458
G1 X149.245 Y51.049 E84.64021
G1 X149.245 Y148.951 E89.55347
G1 X149.230 Y149.062 E89.55910
G1 X149.169 Y149.169 E89.56530
G1 X149.062 Y149.230 E89.57150
G1 X148.951 Y149.245 E89.57713
G1 X51.049 Y149.245 E94.49038
G1 X50.938 Y149.230 E94.49601
G1 X50.831 Y149.169 E94.50221
G1 X50.770 Y149.062 E94.50841
G1 X50.755 Y148.951 E94.51404
G1 X50.755 Y51.049 E99.42729
G1 X50.770 Y50.936 E99.43303
G1 X50.492 Y50.707 F7200.000
;TYPE:External perimeter
G1 F1800.000
G1 X50.585 Y50.585 E99.44071
G1 X50.707 Y50.492 E99.44840
G1 X50.848 Y50.434 E99.45608
G1 X51.027 Y50.410 E99.46512
G1 X148.973 Y50.410 E104.38065
G1 X149.152 Y50.434 E104.38969
G1 X149.293 Y50.492 E104.39737
G1 X149.415 Y50.585 E104.40506
G1 X149.508 Y50.707 E104.41274
G1 X149.566 Y50.848 E104.42042
G1 X149.590 Y51.027 E104.42947
G1 X149.590 Y148.973 E109.34499
G1 X149.566 Y149.152 E109.35403
G1 X149.508 Y149.293 E109.36172
G1 X149.415 Y149.415 E109.36940
G1 X149.293 Y149.508 E109.37708
G1 X149.152 Y149.566 E109.38477
G1 X148.973 Y149.590 E109.39381
G1 X51.027 Y149.590 E114.30933
G1 X50.848 Y149.566 E114.31838
G1 X50.707 Y149.508 E114.32606
G1 X50.585 Y149.415 E114.33374
G1 X50.492 Y149.293 E114.34143
G1 X50.434 Y149.152 E114.34911
G1 X50.410 Y148.973 E114.35815
G1 X50.410 Y51.027 E119.27368
G1 X50.434 Y50.848 E119.28272
G1 X50.469 Y50.762 E119.28739
G1 X50.645 Y50.706 F7200.000
G1 E117.28739 F2400.000
G92 E0
G1 X147.063 Y52.238 F7200.000
G1 E2.00000 F2400.000
;TYPE:Solid infill
;WIDTH:0.420738
G1 F1800.000
G1 X147.607 Y52.781 E2.03866
G1 X147.607 Y53.270 E2.06324
G1 X146.730 Y52.393 E2.12563
G1 X146.241 Y52.393 E2.15022
G1 X147.607 Y53.759 E2.24737
G1 X147.607 Y54.248 E2.27195
G1 X145.752 Y52.393 E2.40387
G1 X145.263 Y52.393 E2.42845
G1 X147.607 Y54.737 E2.59514
G1 X147.607 Y55.225 E2.61972
G1 X144.775 Y52.393 E2.82117
G1 X144.286 Y52.393 E2.84575
G1 X147.607 Y55.714 E3.08197
G1 X147.607 Y56.203 E3.10655
G1 X143.797 Y52.393 E3.37753
G1 X143.308 Y52.393 E3.40212
G1 X147.607 Y56.692 E3.70786
G1 X147.607 Y57.181 E3.73244
G1 X142.819 Y52.393 E4.07296
G1 X142.331 Y52.393 E4.09754
G1 X147.607 Y57.669 E4.47282
G1 X147.607 Y58.158 E4.49740
G1 X141.842 Y52.393 E4.90744
G1 X141.353 Y52.393 E4.93202
G1 X147.607 Y58.647 E5.37683
G1 X147.607 Y59.136 E5.40141
G1 X140.864 Y52.393 E5.88099
G1 X140.375 Y52.393 E5.90557
G1 X147.607 Y59.625 E6.41991
G1 X147.607 Y60.113 E6.44449
G1 X139.887 Y52.393 E6.99360
G1 X139.398 Y52.393 E7.01818
G1 X147.607 Y60.602 E7.60205
G1 X147.607 Y61.091 E7.62663
G1 X138.909 Y52.393 E8.24527
G1 X138.420 Y52.393 E8.26985
G1 X147.607 Y61.580 E8.92325
G1 X147.607 Y62.068 E8.94783
G1 X137.932 Y52.393 E9.63600
G1 X137.443 Y52.393 E9.66058
G1 X147.607 Y62.557 E10.38351
G1 X147.607 Y63.046 E10.40809
G1 X136.954 Y52.393 E11.16579
G1 X136.465 Y52.393 E11.19037
G1 X147.607 Y63.535 E11.98283
G1 X147.607 Y64.024 E12.00742
G1 X135.976 Y52.393 E12.83464
G1 X135.488 Y52.393 E12.85923
G1 X147.607 Y64.512 E13.72122
G1 X147.607 Y65.001 E13.74580
G1 X134.999 Y52.393 E14.64256
G1 X134.510 Y52.393 E14.66714
G1 X147.607 Y65.490 E15.59867
G1 X147.607 Y65.979 E15.62325
G1 X134.021 Y52.393 E16.58954
G1 X133.532 Y52.393 E16.61412
G1 X147.607 Y66.468 E17.61518
G1 X147.607 Y66.956 E17.63976
G1 X133.044 Y52.393 E18.67558
G1 X132.555 Y52.393 E18.70016
G1 X147.607 Y67.445 E19.77075
G1 X147.607 Y67.934 E19.79533
G1 X132.066 Y52.393 E20.90068
G1 X131.577 Y52.393 E20.92526
G1 X147.607 Y68.423 E22.06538
G1 X147.607 Y68.912 E22.08996
G1 X131.088 Y52.393 E23.26484
G1 X130.600 Y52.393 E23.28943
G1 X147.607 Y69.400 E24.49907
G1 X147.607 Y69.889 E24.52366
G1 X130.111 Y52.393 E25.76807
G1 X129.622 Y52.393 E25.79265
G1 X147.607 Y70.378 E27.07183
G1 X147.607 Y70.867 E27.09641
G1 X129.133 Y52.393 E28.41035
G1 X128.644 Y52.393 E28.43494
G1 X147.607 Y71.355 E29.78365
G1 X147.607 Y71.844 E29.80823
G1 X128.156 Y52.393 E31.19170
G1 X127.667 Y52.393 E31.21629
G1 X147.607 Y72.333 E32.63452
G1 X147.607 Y72.822 E32.65911
G1 X127.178 Y52.393 E34.11211
G1 X126.689 Y52.393 E34.13670
G1 X147.607 Y73.311 E35.62447
G1 X147.607 Y73.799 E35.64905
G1 X126.201 Y52.393 E37.17158
G1 X125.712 Y52.393 E37.19617
G1 X147.607 Y74.288 E38.75347
G1 X147.607 Y74.777 E38.77805
G1 X125.223 Y52.393 E40.37012
G1 X124.734 Y52.393 E40.39470
G1 X147.607 Y75.266 E42.02153
G1 X147.607 Y75.755 E42.04611
G1 X124.245 Y52.393 E43.70771
G1 X123.757 Y52.393 E43.73229
G1 X147.607 Y76.243 E45.42866
G1 X147.607 Y76.732 E45.45324
G1 X123.268 Y52.393 E47.18437
G1 X122.779 Y52.393 E47.20895
G1 X147.607 Y77.221 E48.97484
G1 X147.607 Y77.710 E48.99943
G1 X122.290 Y52.393 E50.80009
G1 X121.801 Y52.393 E50.82467
G1 X147.607 Y78.199 E52.66009
G1 X147.607 Y78.687 E52.68468
G1 X121.313 Y52.393 E54.55487
G1 X120.824 Y52.393 E54.57945
G1 X147.607 Y79.176 E56.48440
G1 X147.607 Y79.665 E56.50899
G1 X120.335 Y52.393 E58.44871
G1 X119.846 Y52.393 E58.47329
G1 X147.607 Y80.154 E60.44778
G1 X147.607 Y80.643 E60.47236
G1 X119.357 Y52.393 E62.48161
G1 X118.869 Y52.393 E62.50619
G1 X147.607 Y81.131 E64.55021
G1 X147.607 Y81.620 E64.57479
G1 X118.380 Y52.393 E66.65357
G1 X117.891 Y52.393 E66.67816
G1 X147.607 Y82.109 E68.79170
G1 X147.607 Y82.598 E68.81629
G1 X117.402 Y52.393 E70.96460
G1 X116.914 Y52.393 E70.98918
G1 X147.607 Y83.086 E73.17226
G1 X147.607 Y83.575 E73.19684
G1 X116.425 Y52.393 E75.41469
G1 X115.936 Y52.393 E75.43927
G1 X147.607 Y84.064 E77.69188
G1 X147.607 Y84.553 E77.71646
G1 X115.447 Y52.393 E80.00384
G1 X114.958 Y52.393 E80.02842
G1 X147.607 Y85.042 E82.35056
G1 X147.607 Y85.530 E82.37514
G1 X114.470 Y52.393 E84.73205
G1 X113.981 Y52.393 E84.75663
G1 X147.607 Y86.019 E87.14830
G1 X147.607 Y86.508 E87.17289
G1 X113.492 Y52.393 E89.59932
G1 X113.003 Y52.393 E89.62390
G1 X147.607 Y86.997 E92.08511
G1 X147.607 Y87.486 E92.10969
G1 X112.514 Y52.393 E94.60566
G1 X112.026 Y52.393 E94.63024
G1 X147.607 Y87.974 E97.16097
G1 X147.607 Y88.463 E97.18555
G1 X111.537 Y52.393 E99.75105
G1 X111.048 Y52.393 E99.77564
G1 X147.607 Y88.952 E102.37590
G1 X147.607 Y89.441 E102.40048
G1 X110.559 Y52.393 E105.03551
G1 X110.070 Y52.393 E105.06009
G1 X147.607 Y89.930 E107.72989
G1 X147.607 Y90.418 E107.75447
G1 X109.582 Y52.393 E110.45903
G1 X109.093 Y52.393 E110.48361
G1 X147.607 Y90.907 E113.22294
G1 X147.607 Y91.396 E113.24752
G1 X108.604 Y52.393 E116.02161
G1 X108.115 Y52.393 E116.04619
G1 X147.607 Y91.885 E118.85505
G1 X147.607 Y92.373 E118.87963
G1 X107.627 Y52.393 E121.72325
G1 X107.138 Y52.393 E121.74784
G1 X147.607 Y92.862 E124.62622
G1 X147.607 Y93.351 E124.65081
G1 X106.649 Y52.393 E127.56396
G1 X106.160 Y52.393 E127.58854
G1 X147.607 Y93.840 E130.53646
G1 X147.607 Y94.329 E130.56104
G1 X105.671 Y52.393 E133.54372
G1 X105.183 Y52.393 E133.56831
G1 X147.607 Y94.817 E136.58576
G1 X147.607 Y95.306 E136.61034
G1 X104.694 Y52.393 E139.66255
G1 X104.205 Y52.393 E139.68713
G1 X147.607 Y95.795 E142.77411
G1 X147.607 Y96.284 E142.79870
G1 X103.716 Y52.393 E145.92044
G1 X103.227 Y52.393 E145.94502
G1 X147.607 Y96.773 E149.10153
G1 X147.607 Y97.261 E149.12612
G1 X102.739 Y52.393 E152.31739
G1 X102.250 Y52.393 E152.34198
G1 X147.607 Y97.750 E155.56802
G1 X147.607 Y98.239 E155.59260
G1 X101.761 Y52.393 E158.85341
G1 X101.272 Y52.393 E158.87799
G1 X147.607 Y98.728 E162.17356
G1 X147.607 Y99.217 E162.19814
G1 X100.783 Y52.393 E165.52848
G1 X100.295 Y52.393 E165.55306
G1 X147.607 Y99.705 E168.91816
G1 X147.607 Y100.194 E168.94275
G1 X99.806 Y52.393 E172.34262
G1 X99.317 Y52.393 E172.36720
G1 X147.607 Y100.683 E175.80183
G1 X147.607 Y101.172 E175.82641
G1 X98.828 Y52.393 E179.29581
G1 X98.339 Y52.393 E179.32040
G1 X147.607 Y101.660 E182.82456
G1 X147.607 Y102.149 E182.84914
G1 X97.851 Y52.393 E186.38807
G1 X97.362 Y52.393 E186.41265
G1 X147.607 Y102.638 E189.98635
G1 X147.607 Y103.127 E190.01093
G1 X96.873 Y52.393 E193.61939
G1 X96.384 Y52.393 E193.64398
G1 X147.607 Y103.616 E197.28720
G1 X147.607 Y104.104 E197.31178
G1 X95.896 Y52.393 E200.98977
G1 X95.407 Y52.393 E201.01436
G1 X147.607 Y104.593 E204.72711
G1 X147.607 Y105.082 E204.75170
G1 X94.918 Y52.393 E208.49922
G1 X94.429 Y52.393 E208.52380
G1 X147.607 Y105.571 E212.30609
G1 X147.607 Y106.060 E212.33067
G1 X93.940 Y52.393 E216.14772
G1 X93.452 Y52.393 E216.17231
G1 X147.607 Y106.548 E220.02413
G1 X147.607 Y107.037 E220.04871
G1 X92.963 Y52.393 E223.93529
G1 X92.474 Y52.393 E223.95987
G1 X147.607 Y107.526 E227.88122
G1 X147.607 Y108.015 E227.90581
G1 X91.985 Y52.393 E231.86192
G1 X91.496 Y52.393 E231.88650
G1 X147.607 Y108.504 E235.87738
G1 X147.607 Y108.992 E235.90197
G1 X91.008 Y52.393 E239.92761
G1 X90.519 Y52.393 E239.95219
G1 X147.607 Y109.481 E244.01261
G1 X147.607 Y109.970 E244.03719
G1 X90.030 Y52.393 E248.13236
G1 X89.541 Y52.393 E248.15695
G1 X147.607 Y110.459 E252.28689
G1 X147.607 Y110.948 E252.31147
G1 X89.052 Y52.393 E256.47618
G1 X88.564 Y52.393 E256.50076
G1 X147.607 Y111.436 E260.70023
G1 X147.607 Y111.925 E260.72482
G1 X88.075 Y52.393 E264.95905
G1 X87.586 Y52.393 E264.98364
G1 X147.607 Y112.414 E269.25264
G1 X147.607 Y112.903 E269.27722
G1 X87.097 Y52.393 E273.58099
G1 X86.609 Y52.393 E273.60557
G1 X147.607 Y113.391 E277.94411
G1 X147.607 Y113.880 E277.96869
G1 X86.120 Y52.393 E282.34199
G1 X85.631 Y52.393 E282.36657
G1 X147.607 Y114.369 E286.77464
G1 X147.607 Y114.858 E286.79922
G1 X85.142 Y52.393 E291.24205
G1 X84.653 Y52.393 E291.26663
G1 X147.607 Y115.347 E295.74423
G1 X147.607 Y115.835 E295.76881
G1 X84.165 Y52.393 E300.28117
G1 X83.676 Y52.393 E300.30576
G1 X147.607 Y116.324 E304.85288
G1 X147.607 Y116.813 E304.87746
G1 X83.187 Y52.393 E309.45936
G1 X82.698 Y52.393 E309.48394
G1 X147.607 Y117.302 E314.10060
G1 X147.607 Y117.791 E314.12518
G1 X82.209 Y52.393 E318.77660
G1 X81.721 Y52.393 E318.80119
G1 X147.607 Y118.279 E323.48737
G1 X147.607 Y118.768 E323.51196
G1 X81.232 Y52.393 E328.23291
G1 X80.743 Y52.393 E328.25749
G1 X147.607 Y119.257 E333.01321
G1 X147.607 Y119.746 E333.03779
G1 X80.254 Y52.393 E337.82828
G1 X79.765 Y52.393 E337.85286
G1 X147.607 Y120.235 E342.67811
G1 X147.607 Y120.723 E342.70269
G1 X79.277 Y52.393 E347.56271
G1 X78.788 Y52.393 E347.58729
G1 X147.607 Y121.212 E352.48207
G1 X147.607 Y121.701 E352.50665
G1 X78.299 Y52.393 E357.43620
G1 X77.810 Y52.393 E357.46078
G1 X147.607 Y122.190 E362.42510
G1 X147.607 Y122.678 E362.44968
G1 X77.322 Y52.393 E367.44875
G1 X76.833 Y52.393 E367.47334
G1 X147.607 Y123.167 E372.50718
G1 X147.607 Y123.656 E372.53176
G1 X76.344 Y52.393 E377.60037
G1 X75.855 Y52.393 E377.62495
G1 X147.607 Y124.145 E382.72833
G1 X147.607 Y124.634 E382.75291
G1 X75.366 Y52.393 E387.89105
G1 X74.878 Y52.393 E387.91563
G1 X147.607 Y125.122 E393.08853
G1 X147.607 Y125.611 E393.11312
G1 X74.389 Y52.393 E398.32079
G1 X73.900 Y52.393 E398.34537
G1 X147.607 Y126.100 E403.58780
G1 X147.607 Y126.589 E403.61239
G1 X73.411 Y52.393 E408.88959
G1 X72.922 Y52.393 E408.91417
G1 X147.607 Y127.078 E414.22613
G1 X147.607 Y127.566 E414.25072
G1 X72.434 Y52.393 E419.59745
G1 X71.945 Y52.393 E419.62203
G1 X147.607 Y128.055 E425.00353
G1 X147.607 Y128.544 E425.02811
G1 X71.456 Y52.393 E430.44437
G1 X70.967 Y52.393 E430.46896
G1 X147.607 Y129.033 E435.91998
G1 X147.607 Y129.522 E435.94456
G1 X70.478 Y52.393 E441.43036
G1 X69.990 Y52.393 E441.45494
G1 X147.607 Y130.010 E446.97550
G1 X147.607 Y130.499 E447.00008
G1 X69.501 Y52.393 E452.55540
G1 X69.012 Y52.393 E452.57999
G1 X147.607 Y130.988 E458.17008
G1 X147.607 Y131.477 E458.19466
G1 X68.523 Y52.393 E463.81951
G1 X68.034 Y52.393 E463.84410
G1 X147.607 Y131.966 E469.50372
G1 X147.607 Y132.454 E469.52830
G1 X67.546 Y52.393 E475.22268
G1 X67.057 Y52.393 E475.24727
G1 X147.607 Y132.943 E480.97642
G1 X147.607 Y133.432 E481.00100
G1 X66.568 Y52.393 E486.76492
G1 X66.079 Y52.393 E486.78950
G1 X147.607 Y133.921 E492.58818
G1 X147.607 Y134.409 E492.61276
G1 X65.591 Y52.393 E498.44621
G1 X65.102 Y52.393 E498.47079
G1 X147.607 Y134.898 E504.33900
G1 X147.607 Y135.387 E504.36359
G1 X64.613 Y52.393 E510.26656
G1 X64.124 Y52.393 E510.29115
G1 X147.607 Y135.876 E516.22889
G1 X147.607 Y136.365 E516.25347
G1 X63.635 Y52.393 E522.22598
G1 X63.147 Y52.393 E522.25056
G1 X147.607 Y136.853 E528.25784
G1 X147.607 Y137.342 E528.28242
G1 X62.658 Y52.393 E534.32446
G1 X62.169 Y52.393 E534.34904
G1 X147.607 Y137.831 E540.42585
G1 X147.607 Y138.320 E540.45043
G1 X61.680 Y52.393 E546.56200
G1 X61.191 Y52.393 E546.58658
G1 X147.607 Y138.809 E552.73292
G1 X147.607 Y139.297 E552.75750
G1 X60.703 Y52.393 E558.93860
G1 X60.214 Y52.393 E558.96318
G1 X147.607 Y139.786 E565.17905
G1 X147.607 Y140.275 E565.20363
G1 X59.725 Y52.393 E571.45427
G1 X59.236 Y52.393 E571.47885
G1 X147.607 Y140.764 E577.76425
G1 X147.607 Y141.253 E577.78883
G1 X58.747 Y52.393 E584.10899
G1 X58.259 Y52.393 E584.13357
G1 X147.607 Y141.741 E590.48850
G1 X147.607 Y142.230 E590.51308
G1 X57.770 Y52.393 E596.90278
G1 X57.281 Y52.393 E596.92736
G1 X147.607 Y142.719 E603.35182
G1 X147.607 Y143.208 E603.37640
G1 X56.792 Y52.393 E609.83563
G1 X56.304 Y52.393 E609.86021
