; generated by PrusaSlicer 2.3.3+win64 on 2021-10-12 at 18:07:17 UTC

; 

; external perimeters extrusion width = 0.45mm
; perimeters extrusion width = 0.45mm
; infill extrusion width = 0.45mm
; solid infill extrusion width = 0.45mm
; top infill extrusion width = 0.40mm
; first layer extrusion width = 0.42mm

M201 X9000 Y9000 Z500 E10000 ; sets maximum accelerations, mm/sec^2
M203 X500 Y500 Z12 E120 ; sets maximum feedrates, mm/sec
M204 P1500 R1500 T1500 ; sets acceleration (P, T) and retract acceleration (R), mm/sec^2
M205 X10.00 Y10.00 Z0.20 E2.50 ; sets the jerk limits, mm/sec
M205 S0 T0 ; sets the minimum extruding and travel feed rate, mm/sec
M107
M190 S105 ; set bed temperature and wait for it to be reached
M104 S200 ; set temperature
;TYPE:Custom
G28 ; home all axes
G1 Z5 F5000 ; lift nozzle
M109 S200 ; set temperature and wait for it to be reached
G21 ; set units to millimeters
G90 ; use absolute coordinates
M82 ; use absolute distances for extrusion
G92 E0
; Filament gcode
;LAYER_CHANGE
;Z:0.35
;HEIGHT:0.35
G1 Z0.350 F7200.000
G1 E-2.00000 F2400.000
G92 E0
G1 X45.649 Y45.970 F7200.000
G1 E2.00000 F2400.000
;TYPE:Skirt
;WIDTH:0.42
G1 F1800.000
G1 X46.797 Y44.981 E2.07604
G1 X47.924 Y44.336 E2.14120
G1 X49.313 Y43.852 E2.21505
G1 X50.860 Y43.657 E2.29330
G1 X149.006 Y43.655 E7.21884
G1 X150.437 Y43.800 E7.29102
G1 X151.641 Y44.153 E7.35400
G1 X152.904 Y44.780 E7.42475
G1 X154.103 Y45.717 E7.50111
G1 X155.037 Y46.823 E7.57374
G1 X155.654 Y47.901 E7.63610
G1 X156.129 Y49.235 E7.70716
G1 X156.337 Y50.692 E7.78105
G1 X156.344 Y149.124 E12.72096
G1 X156.190 Y150.492 E12.79003
G1 X155.844 Y151.647 E12.85052
G1 X155.244 Y152.867 E12.91879
G1 X154.351 Y154.030 E12.99235
G1 X153.182 Y155.033 E13.06964
G1 X152.025 Y155.687 E13.13635
G1 X150.614 Y156.164 E13.21113
G1 X149.021 Y156.345 E13.29154
G1 X50.876 Y156.344 E18.21709
G1 X49.508 Y156.190 E18.28616
G1 X48.353 Y155.844 E18.34665
G1 X47.133 Y155.244 E18.41491
G1 X45.970 Y154.351 E18.48848
G1 X44.967 Y153.182 E18.56577
G1 X44.313 Y152.025 E18.63248
G1 X43.836 Y150.614 E18.70725
G1 X43.655 Y149.021 E18.78767
G1 X43.656 Y50.876 E23.71321
G1 X43.810 Y49.508 E23.78228
G1 X44.156 Y48.353 E23.84278
G1 X44.756 Y47.133 E23.91104
G1 X45.612 Y46.017 E23.98160
G1 E21.98160 F2400.000
G92 E0
G1 X51.245 Y51.245 F7200.000
G1 E2.00000 F2400.000
;TYPE:Perimeter
G1 F1800.000
G1 X148.755 Y51.245 E6.89362
G1 X148.755 Y148.755 E11.78723
G1 X51.245 Y148.755 E16.68085
G1 X51.245 Y51.305 E21.57146
G1 X51.590 Y51.590 F7200.000
;TYPE:External perimeter
G1 F1800.000
G1 X148.410 Y51.590 E26.43046
G1 X148.410 Y148.410 E31.28946
G1 X51.590 Y148.410 E36.14846
G1 X51.590 Y51.650 E41.00445
G1 X51.486 Y51.204 F7200.000
G1 X50.793 Y50.881
;TYPE:Perimeter
G1 F1800.000
G1 X50.881 Y50.793 E41.01065
G1 X51.049 Y50.755 E41.01933
G1 X148.983 Y50.759 E45.93421
G1 X149.062 Y50.770 E45.93820
G1 X149.169 Y50.831 E45.94440
G1 X149.230 Y50.938 E45.95060
G1 X149.245 Y51.049 E45.95623
G1 X149.245 Y148.951 E50.86948
G1 X149.230 Y149.062 E50.87511
G1 X149.169 Y149.169 E50.88131
G1 X149.062 Y149.230 E50.88751
G1 X148.951 Y149.245 E50.89314
G1 X51.049 Y149.245 E55.80639
G1 X50.938 Y149.230 E55.81202
G1 X50.831 Y149.169 E55.81822
G1 X50.770 Y149.062 E55.82442
G1 X50.755 Y148.951 E55.83005
G1 X50.755 Y51.049 E60.74330
G1 X50.770 Y50.936 E60.74905
G1 X50.492 Y50.707 F7200.000
;TYPE:External perimeter
G1 F1800.000
G1 X50.585 Y50.585 E60.75673
G1 X50.707 Y50.492 E60.76441
G1 X50.848 Y50.434 E60.77210
G1 X51.027 Y50.410 E60.78114
G1 X149.005 Y50.414 E65.69828
G1 X149.152 Y50.434 E65.70569
G1 X149.293 Y50.492 E65.71337
G1 X149.415 Y50.585 E65.72106
G1 X149.508 Y50.707 E65.72874
G1 X149.566 Y50.848 E65.73642
G1 X149.590 Y51.027 E65.74547
G1 X149.590 Y148.973 E70.66099
G1 X149.566 Y149.152 E70.67003
G1 X149.508 Y149.293 E70.67772
G1 X149.415 Y149.415 E70.68540
G1 X149.293 Y149.508 E70.69308
G1 X149.152 Y149.566 E70.70077
G1 X148.973 Y149.590 E70.70981
G1 X51.027 Y149.590 E75.62533
G1 X50.848 Y149.566 E75.63438
G1 X50.707 Y149.508 E75.64206
G1 X50.585 Y149.415 E75.64974
G1 X50.492 Y149.293 E75.65743
G1 X50.434 Y149.152 E75.66511
G1 X50.410 Y148.973 E75.67415
G1 X50.410 Y51.027 E80.58968
G1 X50.434 Y50.848 E80.59872
G1 X50.469 Y50.762 E80.60339
G1 X50.645 Y50.706 F7200.000
G1 X51.000 Y51.000
;TYPE:Gap fill
;WIDTH:0.237534
G1 F1800.000
G1 X51.015 Y51.015 E80.60390
G1 X51.000 Y51.066 E80.60514
;WIDTH:0.220793
G1 X51.000 Y51.073 E80.60529
;WIDTH:0.220445
G1 X51.000 Y148.927 E82.67472
;WIDTH:0.220793
G1 X51.000 Y148.934 E82.67487
;WIDTH:0.237535
G1 X51.015 Y148.985 E82.67612
;WIDTH:0.237537
G1 X51.066 Y149.000 E82.67736
;WIDTH:0.220794
G1 X51.073 Y149.000 E82.67751
;WIDTH:0.220445
G1 X148.927 Y149.000 E84.74694
;WIDTH:0.220795
G1 X148.934 Y149.000 E84.74709
;WIDTH:0.237538
G1 X148.985 Y148.985 E84.74833
G1 X149.000 Y149.000 F7200.000
G1 F1800.000
G1 X148.985 Y148.985 E84.74884
;WIDTH:0.237539
G1 X149.000 Y148.934 E84.75008
;WIDTH:0.220793
G1 X149.000 Y148.927 E84.75023
;WIDTH:0.220445
G1 X149.000 Y51.073 E86.81966
;WIDTH:0.220793
G1 X149.000 Y51.066 E86.81981
;WIDTH:0.237536
G1 X148.985 Y51.015 E86.82106
;WIDTH:0.237537
G1 X148.967 Y51.008 E86.82152
;WIDTH:0.227082
G1 X148.927 Y51.002 E86.82240
;WIDTH:0.22044
G1 X51.073 Y51.000 E88.89176
;WIDTH:0.22079
G1 X51.066 Y51.000 E88.89191
;WIDTH:0.237534
G1 X51.015 Y51.015 E88.89315
G1 E86.89315 F2400.000
G92 E0
G1 X148.985 Y51.015 F7200.000
G1 E2.00000 F2400.000
;WIDTH:0.237535
G1 F1800.000
G1 X149.000 Y51.000 E2.00051
G1 E0.00051 F2400.000
G92 E0
G1 X51.015 Y148.985 F7200.000
G1 E2.00000 F2400.000
;WIDTH:0.237536
G1 F1800.000
G1 X51.000 Y149.000 E2.00051
;LAYER_CHANGE
;Z:0.51
;HEIGHT:0.16
G1 Z0.510 F7200.000
M140 S225 ; set bed temperature
G1 X51.359 Y51.359
;TYPE:Perimeter
;WIDTH:0.45
G1 F1500.000
G1 X148.641 Y51.359 E4.69034
G1 X148.641 Y148.641 E7.38018
G1 X51.359 Y148.641 E10.07001
G1 X51.359 Y51.419 E12.75819
G1 X51.775 Y51.775 F7200.000
;TYPE:External perimeter
G1 F375.000
G1 X148.225 Y51.775 E15.42504
G1 X148.225 Y148.225 E18.09189
G1 X51.775 Y148.225 E20.75873
G1 X51.775 Y51.835 E23.42392
G1 X51.671 Y51.389 F7200.000
G1 X50.750 Y50.750
;TYPE:Perimeter
G1 F1500.000
G1 X50.908 Y50.658 E23.42899
G1 X51.042 Y50.641 E23.43271
G1 X148.958 Y50.641 E26.14010
G1 X149.092 Y50.658 E26.14382
G1 X149.250 Y50.750 E26.14889
G1 X149.342 Y50.908 E26.15395
G1 X149.359 Y51.042 E26.15767
G1 X149.359 Y148.958 E28.86506
G1 X149.342 Y149.092 E28.86878
G1 X149.250 Y149.250 E28.87385
G1 X149.092 Y149.342 E28.87891
G1 X148.958 Y149.359 E28.88264
G1 X51.042 Y149.359 E31.59002
G1 X50.908 Y149.342 E31.59374
G1 X50.750 Y149.250 E31.59881
G1 X50.658 Y149.092 E31.60387
G1 X50.641 Y148.958 E31.60760
G1 X50.641 Y51.042 E34.31498
G1 X50.658 Y50.908 E34.31871
G1 X50.713 Y50.797 E34.32213
G1 X50.321 Y50.636 F7200.000
;TYPE:External perimeter
G1 F375.000
G1 X50.453 Y50.453 E34.32837
G1 X50.613 Y50.331 E34.33395
G1 X50.800 Y50.253 E34.33953
G1 X51.015 Y50.225 E34.34552
G1 X148.985 Y50.225 E37.05441
G1 X149.200 Y50.253 E37.06040
G1 X149.387 Y50.331 E37.06598
G1 X149.547 Y50.453 E37.07156
G1 X149.669 Y50.613 E37.07714
G1 X149.747 Y50.800 E37.08272
G1 X149.775 Y51.015 E37.08871
G1 X149.775 Y148.985 E39.79760
G1 X149.747 Y149.200 E39.80359
G1 X149.669 Y149.387 E39.80917
G1 X149.547 Y149.547 E39.81475
G1 X149.387 Y149.669 E39.82033
G1 X149.200 Y149.747 E39.82591
G1 X148.985 Y149.775 E39.83190
G1 X51.015 Y149.775 E42.54079
G1 X50.800 Y149.747 E42.54679
G1 X50.613 Y149.669 E42.55237
G1 X50.453 Y149.547 E42.55795
G1 X50.331 Y149.387 E42.56353
G1 X50.253 Y149.200 E42.56911
G1 X50.225 Y148.985 E42.57510
G1 X50.225 Y51.015 E45.28399
G1 X50.253 Y50.800 E45.28998
G1 X50.298 Y50.691 E45.29323
G1 X50.547 Y50.631 F7200.000
G1 X51.000 Y51.000
;TYPE:Gap fill
;WIDTH:0.351791
G1 F1200.000
G1 X51.028 Y51.028 E45.29407
G1 X51.000 Y51.152 E45.29674
G1 X51.000 Y148.848 E47.35982
G1 X51.028 Y148.972 E47.36250
G1 X51.000 Y149.000 E47.36333
G1 X51.028 Y148.972 F7200.000
;WIDTH:0.383333
G1 F1200.000
G1 X51.066 Y148.988 E47.36430
;WIDTH:0.361296
G1 X51.152 Y149.000 E47.36617
;WIDTH:0.337348
G1 X148.848 Y149.000 E49.33539
G1 X148.972 Y148.972 E49.33794
G1 X149.000 Y149.000 E49.33874
G1 X148.972 Y148.972 F7200.000
;WIDTH:0.383333
G1 F1200.000
G1 X148.988 Y148.934 E49.33971
;WIDTH:0.361298
G1 X149.000 Y148.848 E49.34158
;WIDTH:0.337348
G1 X149.000 Y51.152 E51.31080
G1 X148.972 Y51.028 E51.31335
G1 X149.000 Y51.000 F7200.000
G1 F1200.000
G1 X148.972 Y51.028 E51.31415
G1 X148.848 Y51.000 E51.31670
G1 X51.152 Y51.000 E53.28593
;WIDTH:0.361292
G1 X51.066 Y51.012 E53.28780
;WIDTH:0.383331
G1 X51.028 Y51.028 E53.28876
;LAYER_CHANGE
;Z:0.67
;HEIGHT:0.16
G1 Z0.670 F7200.000
G1 X51.359 Y51.359
;TYPE:Perimeter
;WIDTH:0.45
G1 F1500.000
G1 X148.641 Y51.359 E55.97860
G1 X148.641 Y148.641 E58.66843
G1 X51.359 Y148.641 E61.35827
G1 X51.359 Y51.419 E64.04644
G1 X51.775 Y51.775 F7200.000
;TYPE:External perimeter
G1 F375.000
G1 X148.225 Y51.775 E66.71329
G1 X148.225 Y148.225 E69.38014
G1 X51.775 Y148.225 E72.04699
G1 X51.775 Y51.835 E74.71218
G1 X51.671 Y51.389 F7200.000
G1 X50.750 Y50.750
;TYPE:Perimeter
G1 F1500.000
G1 X50.908 Y50.658 E74.71724
G1 X51.042 Y50.641 E74.72097
G1 X148.958 Y50.641 E77.42835
G1 X149.092 Y50.658 E77.43207
G1 X149.250 Y50.750 E77.43714
G1 X149.342 Y50.908 E77.44220
G1 X149.359 Y51.042 E77.44593
G1 X149.359 Y148.958 E80.15331
G1 X149.342 Y149.092 E80.15704
G1 X149.250 Y149.250 E80.16210
G1 X149.092 Y149.342 E80.16716
G1 X148.958 Y149.359 E80.17089
G1 X51.042 Y149.359 E82.87827
G1 X50.908 Y149.342 E82.88200
G1 X50.750 Y149.250 E82.88706
G1 X50.658 Y149.092 E82.89213
G1 X50.641 Y148.958 E82.89585
G1 X50.641 Y51.042 E85.60323
G1 X50.658 Y50.908 E85.60696
G1 X50.713 Y50.797 E85.61039
G1 X50.321 Y50.636 F7200.000
;TYPE:External perimeter
G1 F375.000
G1 X50.453 Y50.453 E85.61662
G1 X50.613 Y50.331 E85.62220
G1 X50.800 Y50.253 E85.62778
G1 X51.015 Y50.225 E85.63377
G1 X148.985 Y50.225 E88.34266
G1 X149.200 Y50.253 E88.34865
G1 X149.387 Y50.331 E88.35423
G1 X149.547 Y50.453 E88.35981
G1 X149.669 Y50.613 E88.36539
G1 X149.747 Y50.800 E88.37097
G1 X149.775 Y51.015 E88.37696
G1 X149.775 Y148.985 E91.08585
G1 X149.747 Y149.200 E91.09184
G1 X149.669 Y149.387 E91.09742
G1 X149.547 Y149.547 E91.10300
G1 X149.387 Y149.669 E91.10858
G1 X149.200 Y149.747 E91.11416
G1 X148.985 Y149.775 E91.12016
G1 X51.015 Y149.775 E93.82905
G1 X50.800 Y149.747 E93.83504
G1 X50.613 Y149.669 E93.84062
G1 X50.453 Y149.547 E93.84620
G1 X50.331 Y149.387 E93.85178
G1 X50.253 Y149.200 E93.85736
G1 X50.225 Y148.985 E93.86335
G1 X50.225 Y51.015 E96.57224
G1 X50.253 Y50.800 E96.57823
G1 X50.298 Y50.691 E96.58148
G1 X50.547 Y50.631 F7200.000
G1 X51.000 Y51.000
;TYPE:Gap fill
;WIDTH:0.351791
G1 F1200.000
G1 X51.028 Y51.028 E96.58232
G1 X51.000 Y51.152 E96.58499
G1 X51.000 Y148.848 E98.64808
G1 X51.028 Y148.972 E98.65075
G1 X51.000 Y149.000 E98.65159
G1 X51.028 Y148.972 F7200.000
;WIDTH:0.337348
G1 F1200.000
G1 X51.152 Y149.000 E98.65414
G1 X148.848 Y149.000 E100.62336
G1 X148.972 Y148.972 E100.62591
G1 X149.000 Y148.848 E100.62846
G1 X149.000 Y51.152 E102.59769
G1 X148.972 Y51.028 E102.60024
G1 X148.848 Y51.000 E102.60279
G1 X51.152 Y51.000 E104.57201
;WIDTH:0.361292
G1 X51.066 Y51.012 E104.57388
;WIDTH:0.383331
G1 X51.028 Y51.028 E104.57485
G1 E102.57485 F2400.000
G92 E0
G1 X148.972 Y148.972 F7200.000
G1 E2.00000 F2400.000
;WIDTH:0.383335
G1 F1200.000
G1 X148.986 Y148.986 E2.00046
;WIDTH:0.351787
G1 X149.000 Y149.000 E2.00088
;LAYER_CHANGE
;Z:0.83
;HEIGHT:0.16
G1 Z0.830 F7200.000
G1 E0.00088 F2400.000
G92 E0
G1 X51.359 Y51.359 F7200.000
G1 E2.00000 F2400.000
;TYPE:Perimeter
;WIDTH:0.45
G1 F1500.000
G1 X148.641 Y51.359 E4.68983
G1 X148.641 Y148.641 E7.37967
G1 X51.359 Y148.641 E10.06950
G1 X51.359 Y51.419 E12.75768
G1 X51.775 Y51.775 F7200.000
;TYPE:External perimeter
G1 F375.000
G1 X148.225 Y51.775 E15.42453
G1 X148.225 Y148.225 E18.09138
G1 X51.775 Y148.225 E20.75822
G1 X51.775 Y51.835 E23.42341
G1 X51.671 Y51.389 F7200.000
G1 X50.750 Y50.750
;TYPE:Perimeter
G1 F1500.000
G1 X50.908 Y50.658 E23.42848
G1 X51.042 Y50.641 E23.43220
G1 X148.958 Y50.641 E26.13959
G1 X149.092 Y50.658 E26.14331
G1 X149.250 Y50.750 E26.14838
G1 X149.342 Y50.908 E26.15344
G1 X149.359 Y51.042 E26.15716
G1 X149.359 Y148.958 E28.86455
G1 X149.342 Y149.092 E28.86827
G1 X149.250 Y149.250 E28.87334
G1 X149.092 Y149.342 E28.87840
G1 X148.958 Y149.359 E28.88213
G1 X51.042 Y149.359 E31.58951
G1 X50.908 Y149.342 E31.59324
G1 X50.750 Y149.250 E31.59830
G1 X50.658 Y149.092 E31.60336
G1 X50.641 Y148.958 E31.60709
G1 X50.641 Y51.042 E34.31447
G1 X50.658 Y50.908 E34.31820
G1 X50.713 Y50.797 E34.32162
G1 X50.321 Y50.636 F7200.000
;TYPE:External perimeter
G1 F375.000
G1 X50.453 Y50.453 E34.32786
G1 X50.613 Y50.331 E34.33344
G1 X50.800 Y50.253 E34.33902
G1 X51.015 Y50.225 E34.34501
G1 X148.985 Y50.225 E37.05390
G1 X149.200 Y50.253 E37.05989
G1 X149.387 Y50.331 E37.06547
G1 X149.547 Y50.453 E37.07105
G1 X149.669 Y50.613 E37.07663
G1 X149.747 Y50.800 E37.08221
G1 X149.775 Y51.015 E37.08820
G1 X149.775 Y148.985 E39.79709
G1 X149.747 Y149.200 E39.80308
G1 X149.669 Y149.387 E39.80866
G1 X149.547 Y149.547 E39.81424
G1 X149.387 Y149.669 E39.81982
G1 X149.200 Y149.747 E39.82540
G1 X148.985 Y149.775 E39.83139
G1 X51.015 Y149.775 E42.54028
G1 X50.800 Y149.747 E42.54628
G1 X50.613 Y149.669 E42.55186
G1 X50.453 Y149.547 E42.55744
G1 X50.331 Y149.387 E42.56302
G1 X50.253 Y149.200 E42.56860
G1 X50.225 Y148.985 E42.57459
G1 X50.225 Y51.015 E45.28348
G1 X50.253 Y50.800 E45.28947
G1 X50.298 Y50.691 E45.29272
G1 X50.547 Y50.631 F7200.000
G1 X51.000 Y51.000
;TYPE:Gap fill
;WIDTH:0.351791
G1 F1200.000
G1 X51.028 Y51.028 E45.29356
G1 X51.000 Y51.152 E45.29623
G1 X51.000 Y148.848 E47.35931
G1 X51.028 Y148.972 E47.36199
G1 X51.000 Y149.000 E47.36283
G1 X51.028 Y148.972 F7200.000
;WIDTH:0.383333
G1 F1200.000
G1 X51.066 Y148.988 E47.36379
;WIDTH:0.361296
G1 X51.152 Y149.000 E47.36566
;WIDTH:0.337348
G1 X148.848 Y149.000 E49.33488
G1 X148.972 Y148.972 E49.33743
G1 X149.000 Y149.000 E49.33824
G1 X148.972 Y148.972 F7200.000
;WIDTH:0.383333
G1 F1200.000
G1 X148.988 Y148.934 E49.33920
;WIDTH:0.361298
G1 X149.000 Y148.848 E49.34107
;WIDTH:0.337348
G1 X149.000 Y51.152 E51.31029
G1 X148.972 Y51.028 E51.31284
G1 X149.000 Y51.000 F7200.000
G1 F1200.000
G1 X148.972 Y51.028 E51.31364
G1 X148.848 Y51.000 E51.31620
G1 X51.152 Y51.000 E53.28542
;WIDTH:0.361292
G1 X51.066 Y51.012 E53.28729
;WIDTH:0.383331
G1 X51.028 Y51.028 E53.28825
;LAYER_CHANGE
;Z:0.99
;HEIGHT:0.16
G1 Z0.990 F7200.000
G1 X51.359 Y51.359
;TYPE:Perimeter
;WIDTH:0.45
G1 F1500.000
G1 X148.641 Y51.359 E55.97809
G1 X148.641 Y148.641 E58.66792
G1 X51.359 Y148.641 E61.35776
G1 X51.359 Y51.419 E64.04593
G1 X51.775 Y51.775 F7200.000
;TYPE:External perimeter
G1 F375.000
G1 X148.225 Y51.775 E66.71278
G1 X148.225 Y148.225 E69.37963
G1 X51.775 Y148.225 E72.04648
G1 X51.775 Y51.835 E74.71167
G1 X51.671 Y51.389 F7200.000
G1 X50.750 Y50.750
;TYPE:Perimeter
G1 F1500.000
G1 X50.908 Y50.658 E74.71673
G1 X51.042 Y50.641 E74.72046
G1 X148.958 Y50.641 E77.42784
G1 X149.075 Y50.656 E77.43111
G1 X149.182 Y50.698 E77.43429
G1 X149.250 Y50.750 E77.43665
G1 X149.342 Y50.908 E77.44172
G1 X149.359 Y51.042 E77.44544
G1 X149.359 Y148.958 E80.15282
G1 X149.342 Y149.092 E80.15655
G1 X149.250 Y149.250 E80.16161
G1 X149.092 Y149.342 E80.16668
G1 X148.958 Y149.359 E80.17040
G1 X51.042 Y149.359 E82.87779
G1 X50.908 Y149.342 E82.88151
G1 X50.750 Y149.250 E82.88657
G1 X50.658 Y149.092 E82.89164
G1 X50.641 Y148.958 E82.89536
G1 X50.641 Y51.042 E85.60275
G1 X50.658 Y50.908 E85.60647
G1 X50.713 Y50.797 E85.60990
G1 X50.321 Y50.636 F7200.000
;TYPE:External perimeter
G1 F375.000
G1 X50.453 Y50.453 E85.61613
G1 X50.613 Y50.331 E85.62171
G1 X50.800 Y50.253 E85.62729
G1 X51.015 Y50.225 E85.63328
G1 X148.985 Y50.225 E88.34217
G1 X149.179 Y50.251 E88.34758
G1 X149.388 Y50.332 E88.35379
G1 X149.547 Y50.453 E88.35930
G1 X149.669 Y50.613 E88.36488
G1 X149.747 Y50.800 E88.37046
G1 X149.775 Y51.015 E88.37646
G1 X149.775 Y148.985 E91.08535
G1 X149.747 Y149.200 E91.09134
G1 X149.669 Y149.387 E91.09692
G1 X149.547 Y149.547 E91.10250
